!!!COM:	Josquin des Pres
**kern	**kern
*part2	*part1
*staff2	*staff1
*clefGv2	*clefGv2
*k[]	*k[]
*M2/1	*M2/1
=1-	=1-
[0A	0A
=2	=2
1A]	1c
1G	1B
=3	=3
0F	2A
.	1c
.	4B
.	4A
=4	=4
1E	2G
.	2.c
[1A	.
.	4d
.	[2e
=5	=5
1A]	2e]
.	4d
.	4c
2G	2B
2F	[2d
=6	=6
0G	4d]
.	4c
.	4B
.	4A
.	1B
=7	=7
1A	2A
.	2D
1c	2E
.	2F
=8	=8
1B	3G
.	3D
.	3E
[1A	4F
.	4G
.	4A
.	4B
=9	=9
2A]	4c
.	4B
2G	1e
1F	.
.	2d
=10	=10
0E	0e
==	==
*-	*-
